packages/core/src/svgs/tokens/mono/DOG.svg

<svg width="24" height="24" viewBox="0 0 24 24" fill="none" xmlns="http://www.w3.org/2000/svg">
<path d="M5.43625 22V13.25H2.9375V10.75H5.43625V2H12.3075C18.3056 2 21.2619 6.42126 21.0519 12.0469C20.8444 17.6187 18.4794 22 12.3082 22H5.43625ZM7.93501 4.50001V10.75H12.9325V13.25H7.93501V19.5H12.3075C17.1044 19.5 18.3969 16.1993 18.555 11.9531C18.7132 7.71938 16.89 4.50001 12.3075 4.50001H7.93501Z" fill="white"/>
</svg>

<svg xmlns="http://www.w3.org/2000/svg" width="24" height="24" fill="none" viewBox="0 0 24 24">
    <path fill="#fff" d="M5.436 22v-8.75H2.938v-2.5h2.498V2h6.871c5.999 0 8.955 4.421 8.745 10.047C20.844 17.619 18.479 22 12.308 22zM7.935 4.5v6.25h4.998v2.5H7.934v6.25h4.373c4.796 0 6.089-3.3 6.247-7.547C18.713 7.72 16.89 4.5 12.307 4.5z"/>
</svg>
